X: 9037
T: Denis Donovan's (with piano acc.)
C: BB
R: hornpipe
Q: 1/8=320
M: 4/4
L: 1/8
V: 1 program 1 73 %flute
V: 2 volume=70 clef=bass m=D program 1 00
K: G
[V:1] (3DEF|"G"G2 BG DGBd|"D7"cAFA "Am"edcA|"G"G2 Bd "Am"cAEA|"D"FAEA D2 (3DEF |
[V:2] z2|G,,2[G2D2B2]B,,2[G2D2B2]|D,2[A,2F2c2]A,,2[A2E2C2]|G,,2[G2D2B2]A,,2[A2E2C2]|\
D,2[D2A2F2]A,,2[D2F2A2]|
%
[V:1] "G"G2 BG DGBd|"Em"edBd efge|"G"dBGE "D"DFAc|"G"B2 "C"G2 "G"G2 :|
[V:2] G,,2[G2D2B2]D,2[G2D2B2]|E,2[E2B2G2]B,,2[E2B2G2]|G,,2[G2D2B2]D,2[D2A2F2]|\
[G,2D2B2][C,2G,2E2][G,2D2B2]:|
%
[V:1] B2|"Am"ABcd "C"e2 cA|"G"GBdf g2 ge|"D"df (3fef af (3fef|"G"gfge dcBG |
[V:2] z2|A,,2[A2E2C2]C,2[C2G2E2]|G,,2[G2D2B2]B,,2[G2D2B2]|D,2[D2A2F2]A,,2[D2F2A2]|\
G,2[G2D2B2]D,2[G2D2B2]|
%
[V:1] "Am"ABcd "C"e2 cA|"G"GBdf g2 ga|"G"bgab "D7"afdc|"G"B2 "C"G2 "G"G2 :|
[V:2] A,,2[A2E2C2]C,2[C2G2E2]|G,,2[G2D2B2]D,2[G2D2B2]|G,,2[G2D2B2]D,2[C2A2F2]|\
[G,2D2B2][C,2G,2E2][G,2D2B2]:|
%%%%%%tune repeat
[V:1] (3DEF|"G"G2 BG DGBd|"D7"cAFA "Am"edcA|"G"G2 Bd "Am"cAEA|"D"FAEA D2 (3DEF |
[V:2] z2|G,,2[G2D2B2]B,,2[G2D2B2]|D,2[A,2F2c2]A,,2[A2E2C2]|G,,2[G2D2B2]A,,2[A2E2C2]|\
D,2[D2A2F2]A,,2[D2F2A2]|
%
[V:1] "G"G2 BG DGBd|"Em"edBd efge|"G"dBGE "D"DFAc|"G"B2 "C"G2 "G"G2 :|
[V:2] G,,2[G2D2B2]D,2[G2D2B2]|E,2[E2B2G2]B,,2[E2B2G2]|G,,2[G2D2B2]D,2[D2A2F2]|\
[G,2D2B2][C,2G,2E2][G,2D2B2]:|
%
[V:1] B2|"Am"ABcd "C"e2 cA|"G"GBdf g2 ge|"D"df (3fef af (3fef|"G"gfge dcBG |
[V:2] z2|A,,2[A2E2C2]C,2[C2G2E2]|G,,2[G2D2B2]B,,2[G2D2B2]|D,2[D2A2F2]A,,2[D2F2A2]|\
G,2[G2D2B2]D,2[G2D2B2]|
%
[V:1] "Am"ABcd "C"e2 cA|"G"GBdf g2 ga|"G"bgab "D7"afdc|1 "G"B2 "C"G2 "G"G2 :|2\
"G"B2 "C"G2 "G"G4-|G4 z4||
[V:2] A,,2[A2E2C2]C,2[C2G2E2]|G,,2[G2D2B2]D,2[G2D2B2]|G,,2[G2D2B2]D,2[C2A2F2]|\
[1 [G,2D2B2][C,2G,2E2][G,2D2B2]:|2 [G,2D2B2][C,2G,2E2][G,,4-D,4-B,4-]|[G,,4D,4B,4] z4||
%%%%%%%%%%%%%%%%%%%%%%%%%%%%%%%%%%%%%%%%%%%
